X: 1
T: Squirrel with a Peanut Butter Jar
C: Ishmael the Fiddler, 2010
N: Dedicated to Bill Fitzpatrick and the Milford Playgroup
N: Copyright 2010 Ishmael the Fiddler, commercial rights reserved
R: jig
Z: 2010 John Chambers <jc:trillian.mit.edu>
M: 6/8
L: 1/8
K: D
[|"D"DFA d2e | f2a f2d | "G"e2d B2A- | "A"A2F E3 \
| "D"DFA d2e | f2a f2f | "G"b2a f2e- | "A"e3- e3- |
| "D"DFA d2e | f2a f2d | "G"e2d B2A- | "A"A2F E3 \
| "D"D3 E3 | F3 A2b | "A"a2f A2d- | "D"d3- d3 |]
[|"D"d3 c3 | "Bm"B3 A3 | "D"F2G "A"A2F- | "D"F2E D3 \
| "D"d3 c3 | B3 A3 | "G"B2c d2e- | "A"e3- e3 |
| "D"d3 c3 | "Bm"B3 A3 | "D"F2G "A"A2F- | "D"F2E D2A, \
| "D"D3 E3 | F3 A2b | "A"a2f A2d- | "D"d3- d3 |]
